X:1
T:James Gibb editions
T:Je suis désheritée - Godebrye
T:#
%%score [ 1 2 3 ]
L:1/8
Q:1/4=108
M:4/4
K:Eb
V:1 treble nm="Soprano" snm="S"
V:2 treble nm="Alto" snm="A"
V:3 treble-8 nm="Tenor" snm="T"
V:1
"^Je suis désheritée""^Jacob Godebrye\n(?-1529)" z8 | z8 | G4 G2 G2 | B2 B2 c4 |[M:4/4] G8 | z8 | %6
w: ||Je suis dés-|he- ri- té-|e||
 z2 e2 e2 e2 ||[M:3/2] d2 c4 =B2 c4 |[M:3/2] G8 z4 ||[M:4/4] z2 G2 G2 G2 | B2 B2 c4 | G8 | %12
w: Puis- que j'ai|per- du mon a-|mi.|Seu- le il|m'a lais- sé-|e,|
[M:4/4] z8 | z2 e2 e2 e2 ||[M:3/2] d2 c4 =B2 c4 | G8 z4 ||[M:4/4] z2 B4 B2 | c2 e2 e2 d2 | %18
w: |Plei- ne de|pleurs et de sou-|ci.|Ros- sig-|nol du bois jo-|
 e2 B4 B2 | c2 e2 d2 (c2- |[M:4/4] cB B4 =A2) | G8 | z2 B2 e3 d ||[M:3/2] c2 c2 (B2 AG A2) A2 | %24
w: li, Sans point|fai- re de meu-||re,|Va t'en di-|re à mon * * * a-|
[M:3/2] G4 z2 G2 G2 G2 ||[M:4/4] (E3 F GA B2) | c2 e4 (d2- | dc c4 =B2) ||[M:3/2] c4 z2 G2 G2 G2 || %29
w: mi Que pour lui|suis * * * *|tour- men- té\-||e, que pour lui|
[M:4/4] (E3 F GA B2) |[Q:1/4=106] c2[Q:1/4=103] e4[Q:1/4=100] (d2- | %31
w: suis * * * *|tour- men- té\-|
[Q:1/4=99] d[Q:1/4=98]c[Q:1/4=96] c3[Q:1/4=94] =B[Q:1/4=93] B[Q:1/4=92]=A/[Q:1/4=92]B/) | %32
w: |
[Q:1/4=92] c8 |] %33
w: e.|
V:2
 G4 G2 G2 | B3 A (G2 F2 | E6 DC | D4) C4 |[M:4/4] z2 B2 B2 B2 | A2 G2 G2 F2 | G2 G2 A3 G || %7
w: Je suis dés-|he- ri- té\- *||* e|Puis- que j'ai|per- du mon a-|mi, puis- que j'ai|
[M:3/2] F2 E2 D2 D2 C2 c2 |[M:3/2] B2 c2 (e3 d/c/ B2) c2 ||[M:4/4] (G2 c2 B2 e2- | e2 d2) e4 | %11
w: per- du mon a- mi. Seu-|le il m'a * * * lais-|sé\- * * *|* * e,|
 z2 e2 e2 e2 |[M:4/4] d2 c2 c2 =B2 | c2 (CD EFGE ||[M:3/2] FEDC D2 D2) C4 | z2 E4 E2 F2 A2 || %16
w: Plei- ne de|pleurs et de sou-|ci, de * * * * *|* * * * * sou- ci.|Ros- sig- nol du|
[M:4/4] G2 (EF GABG | AGFE F4) | E4 z2 E2- | E2 E2 F2 A2 |[M:4/4] G2 (F4 E2- | E2 D2) E2 F2 | %22
w: bois jo\- * * * * *||li, Sans|* point fai- re|de meu\- *|* * re, Va|
 G2 G2 A2 G2 ||[M:3/2] G2 F2 G2 E4 (DC |[M:3/2] D2 E2 D2 B2 B2 B2 ||[M:4/4] c2 c2 (BAGF | %26
w: t'en di- re à|mon a- mi, à mon *|* a- mi Que pour lui|suis tour- men\- * * *|
 EDCD EFGE | FEDC) D4 ||[M:3/2] C4 z2 B2 B2 B2 ||[M:4/4] c2 c2 BAGF | EDCD EFGE | FEDC) D4 | C8 |] %33
w: |* * * * té-|e, que pour lui|suis tour- men\- * * *||* * * * té-|e.|
V:3
 z4 G4 | G2 G2 B2 B2 | c4 G4- | G4 z2 c2 |[M:4/4][K:treble-8] c2 B2 (e3 d | c2) B2 A2 A2 | %6
w: Je|suis dés- he- ri-|té- e|* Puis-|que j'ai per\- *|* du mon a-|
 G2 c2 c2 A2 ||[M:3/2] B2 c2 G2 G2 c4 |[M:3/2][K:treble-8] z2 c2 c2 c2 (e3 d/c/ || %9
w: mi, puis- que j'ai|per- du mon a- mi.|Seu- le il m'a * *|
[M:4/4] B2 c2) (G2 c2) | B4 z2 E2 | E2 E2 C2 C2 |[M:4/4][K:treble-8] (FEDC D2) D2 | C2 (A3 G E2) || %14
w: * lais- sé\- *|e, Plei-|ne de pleurs et|de * * * * sou|ci, et * *|
[M:3/2] B2 c2 G4 z2 c2- | c2 c2 G2 c2 (BA AG/F/ ||[M:4/4][K:treble-8] EFGA Bcde | c2) c2 B4 | %18
w: de sou- ci. Ros-|* sig- nol du bois * * * *||* jo- li,|
 z2 E4 E2 | A2 c2 B2 (A2- |[M:4/4][K:treble-8] B4 c4) | B4 z2 B2 | e3 d c2 B2 || %23
w: Sans point|fai- re de meu\-||re, Va|t'en di- re à|
[M:3/2] A2 A2 G2 c4 (B-A |[M:3/2][K:treble-8] B2 c2 G2 e2 e2 e2 ||[M:4/4] (cBcd e2) E2 | %26
w: mon a- mi, à mon *|* a- mi Que pour lui|suis * * * * tour-|
 A3 B c2) (G2 | A4 G4) ||[M:3/2][K:treble-8] c4 z2 e2 e2 e2 ||[M:4/4] (cBcd e2) E2 | %30
w: men\- * * té\-||e, que pour lui|suis * * * * tour-|
 (A3 B c2) (G2 | A4 G4) | c8 |] %33
w: men\- * * té\-||e.|

